X:1
T:He Will Hide Me
T:He Will Hide Me
T: James McGranahan
T:Mary Elizabeth Servoss, 1878
T:Public Domain, Courtesy of the Cyber Hymnal™
T:Public Domain, Courtesy of the Cyber Hymnal™
C:James McGranahan
Z:Public Domain,
Z:Courtesy of the Cyber Hymnal™
%%score ( 1 2 ) ( 3 4 )
L:1/8
M:9/8
K:G
V:1 treble 
V:2 treble 
V:3 bass 
V:4 bass 
V:1
 (DG)[DA] | [GB]3 [GB]3 ([Ac][GB])[FA] | [GB]3 [DG]3 (DG)[GB] | [Gd]3- [Gd]2 [Gd] (ed)[Fc] | %4
w: 1.~When * the|storms of life * are|rag- ing, Tem- * pests|wild * on sea * and|
w: 2.~Tho’ * He|may send some * af-|flic- tion, ’Twill * but|make * me long * for|
w: 3.~En- * e-|mies may strive * to|in- jure, Sa- * tan|all * his arts * em-|
w: 4.~So, * while|here the cross * I’m|bear- ing, Meet- * ing|storms * and bil- * lows|
 [GB]6 ([GB]A)[GB] | [Fc]3 [FA]3 ([FA]G)[FA] | [DB]3 [DG]3 (GF)[DG] | [CA]3- [CA]2 [EG] (FE)[DF] | %8
w: land, I * will|seek a place * of|ref- uge, In * the|sha- * dow of * God’s|
w: home; For * in|love and not * in|an- ger, All * His|chas- * ten- ings * will|
w: ploy; He * will|turn what seems * to|harm me In- * to|ev- * er- last- * ing|
w: wild, Je- * sus|for my soul * is|car- ing, Naught * can|harm * His Fa- * ther’s|
 [DG]6 ||"^Refrain" (EG)c | e3 c3 (DG)B | d3 B3 (DF)A | c3- (cd)[Fc] [GB]2 [Ac] | [Bd]3 B3 (EG)c | %14
w: hand.||||||
w: come.|He * will|hide me, He * will|hide me, Where * no|harm * * can e’er be-|tide me; He * will|
w: joy.||||||
w: child.||||||
 e3 c3 (DG)B | d3 B3 (DF)A | c3- (cd)[Fc] [GB]2 [FA] | [DG]6 |] %18
w: ||||
w: hide me, safe- * ly|hide me, In * the|sha- * * dow of His|hand.|
w: ||||
w: ||||
V:2
 D2 x | x9 | x6 D2 x | x6 F2 x | x9 | x9 | x6 D2 x | x6 D2 x | x6 || x3 | (G2 G) (E2 E) x3 | %11
 (G2 G) (G2 G) x3 | (F2 F F2) x4 | x3 (G2 =F) x3 | (G2 G) (E2 E) x3 | (G2 G) (G2 G) x3 | %16
 (F2 F F2) x4 | x6 |] %18
V:3
 [G,B,]2 [G,C] | [G,D]3 [G,D]3 [D,D]2 [D,D] | [G,,D]3 [G,,B,]3 [G,B,]2 [G,D] | %3
w: ~ ~|~ ~ ~ ~|~ ~ ~ ~|
 [G,B,]3- [G,B,]2 [G,B,] [D,A,]2 [D,D] | [G,D]6 ([G,D][F,C])[G,B,] | [D,A,]3 [D,C]3 (CB,)[D,A,] | %6
w: ~ * ~ ~ ~|~ ~ * ~|~ ~ ~ * ~|
 [G,,G,]3 [G,,B,]3 ([G,,B,][A,,A,])[B,,G,] | [C,E,]3- [C,E,]2 [C,C] [D,C]2 [D,C] | [G,,B,]6 || z3 | %10
w: ~ ~ ~ * ~|~ * ~ ~ ~|~||
 [C,C]2 [C,C] [C,G,]2 [C,G,] z3 | [G,B,]2 [G,B,] [G,D]2 [G,D] z3 | %12
w: He will hide me,|He will hide me,|
 [D,A,]2 [D,A,] (A,B,)[D,A,] [D,G,]2 [D,F,] | (G,2 B,) [G,,D]3 z3 | %14
w: Where no harm * can e’er be-|tide * me;|
 [C,C]2 [C,C] [C,G,]2 [C,G,] z3 | [G,B,]2 [G,B,] [G,D]2 [G,D] z3 | %16
w: He will hide me,|safe- ly hide me,|
 [D,A,]2 [D,A,] (A,B,)[D,A,] [D,D]2 [D,C] | [G,,B,]6 |] %18
w: In the sha- * dow of His|hand.|
V:4
 x3 | x9 | x9 | x9 | x9 | x6 D,2 x | x9 | x9 | x6 || x3 | x9 | x9 | x3 D,2 x4 | G,,3 x6 | x9 | x9 | %16
 x3 D,2 x4 | x6 |] %18

